X:198
T:The Swallow's Tail Reel (Billy Pigg version)
Z:Jack Campin, http://www.campin.me.uk/
F:Jack Campin's Nine-Note Tunebook
% last edit 03-02-2013
S:http://www.thesession.org/tunes/display/105
N:Transposition of a Northumbrian pipe version of the tune
M:C|
L:1/8
Q:1/2=100
K:DDor
    cB |AD (3FED AD (3FED| ADFA c2BA|GC (3EDC GC (3EDC|GCEG     cGEG     |
        AD (3FED AD (3FED| ADFA c2Bc|dBcA     GECE    |F2       D2    D2:|
|:(3ABc|d2   dc  A2   AG |^FGAB c2Bc|GcEc     GcEc    |C/D/E/F/ G/A/B c2
    Bc |d2   dc  A2   AG |^FGAB c2Bc|dBcA     GECE    |F2       D2    D2:|

